svg/logoV2.svg

<?xml version="1.0" encoding="UTF-8"?>
<svg width="85px" height="85px" viewBox="0 0 85 85" version="1.1" xmlns="http://www.w3.org/2000/svg" xmlns:xlink="http://www.w3.org/1999/xlink">
    <!-- Generator: Sketch 51.3 (57544) - http://www.bohemiancoding.com/sketch -->
    <title>logoV2</title>
    <desc>Created with Sketch.</desc>
    <defs>
        <circle id="path-1" cx="33.5" cy="33.5" r="33.5"></circle>
        <filter x="-18.7%" y="-18.7%" width="137.3%" height="137.3%" filterUnits="objectBoundingBox" id="filter-2">
            <feMorphology radius="0.5" operator="dilate" in="SourceAlpha" result="shadowSpreadOuter1"></feMorphology>
            <feOffset dx="0" dy="0" in="shadowSpreadOuter1" result="shadowOffsetOuter1"></feOffset>
            <feMorphology radius="1" operator="erode" in="SourceAlpha" result="shadowInner"></feMorphology>
            <feOffset dx="0" dy="0" in="shadowInner" result="shadowInner"></feOffset>
            <feComposite in="shadowOffsetOuter1" in2="shadowInner" operator="out" result="shadowOffsetOuter1"></feComposite>
            <feGaussianBlur stdDeviation="4" in="shadowOffsetOuter1" result="shadowBlurOuter1"></feGaussianBlur>
            <feColorMatrix values="0 0 0 0 0   0 0 0 0 0   0 0 0 0 0  0 0 0 0.5 0" type="matrix" in="shadowBlurOuter1"></feColorMatrix>
        </filter>
    </defs>
    <g id="Page-1" stroke="none" stroke-width="1" fill="none" fill-rule="evenodd">
        <g id="Portfolio-Home" transform="translate(-20.000000, -33.000000)">
            <g id="logoV2" transform="translate(29.000000, 42.000000)">
                <g id="Oval">
                    <use fill="black" fill-opacity="1" filter="url(#filter-2)" xlink:href="#path-1"></use>
                    <use stroke="#FFFFFF" stroke-width="1" xlink:href="#path-1"></use>
                </g>
                <g id="logo" fill="#FFFFFF">
                    <path d="M33.5,67 C14.9984609,67 0,52.0015391 0,33.5 C0,14.9984609 14.9984609,0 33.5,0 C52.0015391,0 67,14.9984609 67,33.5 C67,52.0015391 52.0015391,67 33.5,67 Z M43.5900208,31.1269754 C43.1980328,30.2964168 42.5316531,29.2681061 41.6692795,28.5556495 C44.5313365,27.9623933 47.4320479,25.5498183 47.4320479,21.3173751 C47.4320479,16.4916758 44.0217521,14 39.0821585,14 L28.9285798,14 L28.9285798,25.8266712 L22.5778293,25.8266712 L22.5778293,29.544959 L28.9285798,29.544959 L28.9285798,40.6987239 L28.9285798,45.4848728 C28.9285798,47.8974478 27.9094109,49.1630609 25.9097275,49.1630609 C23.2834078,49.1630609 21.4105761,47.0273388 22.2337509,43.6260035 L18.3095153,44.1753148 C16.8978139,49.4355193 20.461094,53 26.0278684,53 C31.2413091,53 33.9857697,49.7563171 33.9857697,44.8125158 L33.9857697,40.6987239 L33.9857697,29.544959 L36.2593003,29.544959 C38.2192404,29.544959 39.3168069,33.0253951 40.2973214,35.3193189 C41.8652735,38.9980563 43.354828,40.8173751 46.5696742,40.8173751 C47.5104455,40.8173751 49,40.5800727 49,40.5800727 L49,36.7689512 C49,36.7689512 48.5296144,36.8623342 47.9808311,36.8623342 C45.5107621,36.8623342 44.6483885,33.3417984 43.5900208,31.1269754 Z" id="Combined-Shape"></path>
                </g>
                <path d="M33.9857697,25.8266712 L33.9857697,17.7973887 L38.4544332,17.7973887 C40.4149178,17.7973887 42.2964603,18.7465985 42.2964603,21.6337784 C42.2964603,25.1147638 39.6701405,25.8266712 37.6710016,25.8266712 L33.9857697,25.8266712 Z" id="Path" fill="#FFFFFF"></path>
            </g>
        </g>
    </g>
</svg>

<?xml version="1.0" encoding="utf-8"?>
<!-- Generator: Adobe Illustrator 23.0.1, SVG Export Plug-In . SVG Version: 6.00 Build 0)  -->
<svg version="1.1" id="Layer_1" xmlns="http://www.w3.org/2000/svg" xmlns:xlink="http://www.w3.org/1999/xlink" x="0px" y="0px"
	 viewBox="0 0 85 85" style="enable-background:new 0 0 85 85;" xml:space="preserve">
<style type="text/css">
	.st0{fill:none;stroke:#FFFFFF;}
	.st1{fill-rule:evenodd;clip-rule:evenodd;fill:#FFFFFF;}
</style>
<title>logoV2</title>
<desc>Created with Sketch.</desc>
<g id="Page-1">
	<g id="Portfolio-Home" transform="translate(-20.000000, -33.000000)">
		<g id="logoV2" transform="translate(29.000000, 42.000000)">
			<g id="Oval">
				<g>
					<circle class="st0" cx="33.5" cy="33.5" r="33.5"/>
				</g>
			</g>
			<g id="logo">
				<path id="Combined-Shape" class="st1" d="M33.5,67C15,67,0,52,0,33.5S15,0,33.5,0S67,15,67,33.5S52,67,33.5,67z M43.6,31.1
					c-0.4-0.8-1.1-1.9-1.9-2.6c2.9-0.6,5.8-3,5.8-7.2c0-4.8-3.4-7.3-8.3-7.3H28.9v11.8h-6.4v3.7h6.4v11.2v4.8c0,2.4-1,3.7-3,3.7
					c-2.6,0-4.5-2.1-3.7-5.5l-3.9,0.5C16.9,49.4,20.5,53,26,53c5.2,0,8-3.2,8-8.2v-4.1V29.5h2.3c2,0,3.1,3.5,4,5.8
					c1.6,3.7,3.1,5.5,6.3,5.5c0.9,0,2.4-0.2,2.4-0.2v-3.8c0,0-0.5,0.1-1,0.1C45.5,36.9,44.6,33.3,43.6,31.1z"/>
			</g>
			<path id="Path" class="st1" d="M34,25.8v-8h4.5c2,0,3.8,0.9,3.8,3.8c0,3.5-2.6,4.2-4.6,4.2H34z"/>
		</g>
	</g>
</g>
</svg>
